Simply black circles/scalable/status/dialog-info.svg

<?xml version="1.0" encoding="UTF-8" standalone="no"?>
<!-- Created with Inkscape (http://www.inkscape.org/) -->

<svg
   xmlns:dc="http://purl.org/dc/elements/1.1/"
   xmlns:cc="http://creativecommons.org/ns#"
   xmlns:rdf="http://www.w3.org/1999/02/22-rdf-syntax-ns#"
   xmlns:svg="http://www.w3.org/2000/svg"
   xmlns="http://www.w3.org/2000/svg"
   xmlns:xlink="http://www.w3.org/1999/xlink"
   xmlns:sodipodi="http://sodipodi.sourceforge.net/DTD/sodipodi-0.dtd"
   xmlns:inkscape="http://www.inkscape.org/namespaces/inkscape"
   id="svg3334"
   width="24"
   height="24"
   version="1.0"
   sodipodi:docname="dialog-info.svg"
   inkscape:version="0.92.3 (2405546, 2018-03-11)">
  <metadata
     id="metadata40">
    <rdf:RDF>
      <cc:Work
         rdf:about="">
        <dc:format>image/svg+xml</dc:format>
        <dc:type
           rdf:resource="http://purl.org/dc/dcmitype/StillImage" />
        <dc:title></dc:title>
      </cc:Work>
    </rdf:RDF>
  </metadata>
  <sodipodi:namedview
     pagecolor="#ffffff"
     bordercolor="#666666"
     borderopacity="1"
     objecttolerance="10"
     gridtolerance="10"
     guidetolerance="10"
     inkscape:pageopacity="0"
     inkscape:pageshadow="2"
     inkscape:window-width="1366"
     inkscape:window-height="719"
     id="namedview38"
     showgrid="false"
     inkscape:zoom="11.083333"
     inkscape:cx="-6.7218051"
     inkscape:cy="11.639098"
     inkscape:window-x="0"
     inkscape:window-y="25"
     inkscape:window-maximized="1"
     inkscape:current-layer="svg3334"
     inkscape:snap-global="false"
     showguides="true"
     inkscape:guide-bbox="true" />
  <defs
     id="defs3336">
    <linearGradient
       id="linearGradient2877"
       x1="25.058001"
       x2="25.058001"
       y1="47.028"
       y2="39.999001"
       gradientUnits="userSpaceOnUse">
      <stop
         id="stop3704"
         style="stop-opacity:0"
         offset="0" />
      <stop
         id="stop3710"
         offset=".5" />
      <stop
         id="stop3706"
         style="stop-opacity:0"
         offset="1" />
    </linearGradient>
    <radialGradient
       id="radialGradient2875"
       cx="4.993"
       cy="43.5"
       r="2.5"
       gradientTransform="matrix(2.0038,0,0,1.4,-20.012,-104.4)"
       gradientUnits="userSpaceOnUse"
       xlink:href="#linearGradient3688" />
    <linearGradient
       id="linearGradient3688">
      <stop
         id="stop3690"
         offset="0" />
      <stop
         id="stop3692"
         style="stop-opacity:0"
         offset="1" />
    </linearGradient>
    <radialGradient
       id="radialGradient2873"
       cx="4.993"
       cy="43.5"
       r="2.5"
       gradientTransform="matrix(2.0038,0,0,1.4,27.988,-17.4)"
       gradientUnits="userSpaceOnUse"
       xlink:href="#linearGradient3688" />
    <linearGradient
       id="linearGradient2865"
       x1="24"
       x2="24"
       y1="44"
       y2="3.8989999"
       gradientTransform="translate(0,0.96744)"
       gradientUnits="userSpaceOnUse">
      <stop
         id="stop2492"
         style="stop-color:#791235"
         offset="0" />
      <stop
         id="stop2494"
         style="stop-color:#dd3b27"
         offset="1" />
    </linearGradient>
    <radialGradient
       id="radialGradient2863"
       cx="12.011"
       cy="10.424"
       r="20"
       gradientTransform="matrix(5.6342e-8,1.6801,-2.4235,1.0381e-8,44.478,-5.9267)"
       gradientUnits="userSpaceOnUse">
      <stop
         id="stop3244"
         style="stop-color:#f89b7e"
         offset="0" />
      <stop
         id="stop3246"
         style="stop-color:#e35d4f"
         offset=".26238" />
      <stop
         id="stop3248"
         style="stop-color:#c6262e"
         offset=".66094" />
      <stop
         id="stop3250"
         style="stop-color:#690b2c"
         offset="1" />
    </radialGradient>
    <linearGradient
       id="linearGradient2855"
       x1="24"
       x2="24"
       y1="5"
       y2="43"
       gradientTransform="translate(0,0.96744)"
       gradientUnits="userSpaceOnUse">
      <stop
         id="stop3310-1-4"
         style="stop-color:#fff"
         offset="0" />
      <stop
         id="stop3312-5-3"
         style="stop-color:#fff;stop-opacity:0"
         offset="1" />
    </linearGradient>
  </defs>
  <path
     style="fill:#008080;fill-opacity:1;stroke-width:0.26165536"
     d="M 12 0.15820312 A 11.84323 11.84323 0 0 0 0.15625 12.001953 A 11.84323 11.84323 0 0 0 12 23.841797 A 11.84323 11.84323 0 0 0 23.84375 12.001953 A 11.84323 11.84323 0 0 0 12 0.15820312 z M 11.966797 1.9179688 A 10.181907 10.181907 0 0 1 22.148438 12.101562 A 10.181907 10.181907 0 0 1 11.966797 22.285156 A 10.181907 10.181907 0 0 1 1.7832031 12.101562 A 10.181907 10.181907 0 0 1 11.966797 1.9179688 z M 12 3.2207031 A 8.8164476 8.779091 0 0 0 3.1835938 12 A 8.8164476 8.779091 0 0 0 12 20.779297 A 8.8164476 8.779091 0 0 0 20.816406 12 A 8.8164476 8.779091 0 0 0 12 3.2207031 z M 13.017578 6.203125 C 13.446909 6.189024 13.823306 6.5342691 13.882812 6.953125 C 14.074542 7.7574965 13.220435 8.5621269 12.435547 8.2402344 C 11.468114 7.7911638 11.99949 6.1490949 13.017578 6.203125 z M 12.582031 9.8164062 C 13.073932 9.8568203 13.321922 10.538354 13.066406 11.107422 C 12.696198 12.757499 12.117278 14.359933 11.804688 16.023438 C 11.955718 16.680221 12.768487 15.883756 13.140625 15.714844 C 13.424053 15.38588 13.493131 15.746514 13.595703 15.998047 C 12.843977 16.524796 12.107103 17.098651 11.251953 17.451172 C 10.447454 17.999903 9.6762997 17.236336 10.015625 16.392578 C 10.340135 14.851514 10.764602 13.333151 11.113281 11.796875 C 11.222206 10.966641 10.133591 11.812488 9.8085938 12.005859 C 9.5464361 12.335284 9.423788 12.096053 9.3144531 11.798828 C 10.185658 11.162557 11.019739 10.452165 12.017578 10.017578 C 12.225802 9.8606592 12.418066 9.8029343 12.582031 9.8164062 z "
     id="path838" />
</svg>

<svg xmlns="http://www.w3.org/2000/svg" width="24" height="24" version="1"><defs><linearGradient id="a"><stop offset="0"/><stop offset="1" stop-opacity="0"/></linearGradient></defs><path d="M12 .158A11.843 11.843 0 0 0 .156 12.002 11.843 11.843 0 0 0 12 23.842a11.843 11.843 0 0 0 11.844-11.84A11.843 11.843 0 0 0 12 .158zm-.033 1.76a10.182 10.182 0 0 1 10.181 10.184 10.182 10.182 0 0 1-10.181 10.183A10.182 10.182 0 0 1 1.783 12.102 10.182 10.182 0 0 1 11.967 1.918zM12 3.221A8.816 8.78 0 0 0 3.184 12 8.816 8.78 0 0 0 12 20.78 8.816 8.78 0 0 0 20.816 12 8.816 8.78 0 0 0 12 3.22zm1.018 2.982c.429-.014.805.331.865.75.192.804-.663 1.61-1.447 1.287-.968-.449-.437-2.09.582-2.037zm-.436 3.613c.492.04.74.722.484 1.291-.37 1.65-.949 3.253-1.261 4.916.15.657.963-.14 1.336-.308.283-.33.352.032.455.283-.752.527-1.489 1.1-2.344 1.453-.805.549-1.576-.215-1.236-1.058.324-1.541.749-3.06 1.097-4.596.11-.83-.98.015-1.304.209-.263.33-.385.09-.495-.207.872-.636 1.706-1.347 2.704-1.781.208-.157.4-.215.564-.202z" fill="teal"/></svg>
